; generated by PrusaSlicer 2.5.0+win64 on 2023-04-28 at 10:19:46 UTC


;
;
; 

; external perimeters extrusion width = 0.65mm
; perimeters extrusion width = 0.65mm
; infill extrusion width = 0.65mm
; solid infill extrusion width = 0.65mm
; top infill extrusion width = 0.60mm
; support material extrusion width = 0.55mm
; first layer extrusion width = 0.65mm

M73 P0 R93
M73 Q0 S98
M201 X1000 Y1000 Z200 E5000 ; sets maximum accelerations, mm/sec^2
M203 X200 Y200 Z12 E120 ; sets maximum feedrates, mm / sec
M204 P1250 R1250 T1250 ; sets acceleration (P, T) and retract acceleration (R), mm/sec^2
M205 X8.00 Y8.00 Z0.40 E4.50 ; sets the jerk limits, mm/sec
M205 S0 T0 ; sets the minimum extruding and travel feed rate, mm/sec
M107
;TYPE:Custom
M862.3 P "MK3S" ; printer model check
M862.1 P0.6 ; nozzle diameter check
M115 U3.11.0 ; tell printer latest fw version
G90 ; use absolute coordinates
M83 ; extruder relative mode
M104 S215 ; set extruder temp
M140 S60 ; set bed temp
M190 S60 ; wait for bed temp
M109 S215 ; wait for extruder temp
G28 W ; home all without mesh bed level
G80 ; mesh bed leveling

G1 Z0.2 F720
G1 Y-3 F1000 ; go outside print area
G92 E0
G1 X60 E9 F1000 ; intro line
G1 X100 E12.5 F1000 ; intro line

G92 E0
M221 S95

; Don't change E values below. Excessive value can damage the printer.

G21 ; set units to millimeters
G90 ; use absolute coordinates
M83 ; use relative distances for extrusion
M900 K0.04 ; Filament gcode LA 1.5
M900 K18 ; Filament gcode LA 1.0
M107
;LAYER_CHANGE
;Z:0.2
;HEIGHT:0.2
;BEFORE_LAYER_CHANGE
G92 E0.0
;0.2


G1 E-.8 F2100
G1 Z.4 F720
;AFTER_LAYER_CHANGE
;0.2
G1 X97.319 Y67.772 F10800
G1 Z.2 F720
G1 E.8 F2100
M204 S800
;TYPE:Skirt/Brim
;WIDTH:0.65
G1 F1200
G1 X98.457 Y66.906 E.0722
G1 X99.406 Y66.728 E.04874
G1 X120.773 Y66.757 E1.07859
G1 X151.393 Y71.423 E1.56348
G1 X152.693 Y72.018 E.0722
G1 X153.484 Y73.209 E.0722
G1 X153.607 Y74 E.04039
G1 X153.607 Y136 E3.12969
G1 X153.215 Y137.375 E.0722
G1 X152.156 Y138.337 E.0722
G1 X151 Y138.607 E.05992
G1 X99 Y138.607 E2.6249
G1 X97.625 Y138.215 E.0722
G1 X96.663 Y137.156 E.0722
G1 X96.393 Y136 E.05992
G1 X96.393 Y74 E3.12969
G1 X96.809 Y69.109 E.2478
G1 X97.287 Y67.857 E.06766
M204 S1000
; printing object Part4 zaid.stl id:0 copy 0
;WIPE_START
G1 F8640
G1 X98.457 Y66.906 E-.34808
G1 X99.406 Y66.728 E-.22297
G1 X100.224 Y66.729 E-.18895
;WIPE_END
G1 E-.04 F2100
G1 Z.6 F720
G1 X120.38 Y73.155 F10800
G1 Z.2 F720
G1 E.8 F2100
M204 S800
;TYPE:Support material
G1 F1200
G1 X99.406 Y73.155 E1.05877
G1 X99.406 Y69.335 E.19285
G1 X120.38 Y69.335 E1.05877
G1 X120.38 Y73.064 E.18825
M204 S1000
G1 X119.604 Y72.882 F10800
M204 S800
G1 F1200
G1 X119.604 Y69.881 E.15148
G1 X118.929 Y69.881 E.03405
G1 X118.929 Y72.609 E.13769
G1 X118.255 Y72.609 E.03405
G1 X118.255 Y69.881 E.13769
G1 X117.58 Y69.881 E.03405
G1 X117.58 Y72.609 E.13769
G1 X116.906 Y72.609 E.03405
G1 X116.906 Y69.881 E.13769
G1 X116.231 Y69.881 E.03405
G1 X116.231 Y72.609 E.13769
G1 X115.557 Y72.609 E.03405
G1 X115.557 Y69.881 E.13769
G1 X114.882 Y69.881 E.03405
G1 X114.882 Y72.609 E.13769
G1 X114.207 Y72.609 E.03405
G1 X114.207 Y69.881 E.13769
G1 X113.533 Y69.881 E.03405
G1 X113.533 Y72.609 E.13769
G1 X112.858 Y72.609 E.03405
M73 P0 R92
G1 X112.858 Y69.881 E.13769
G1 X112.184 Y69.881 E.03405
G1 X112.184 Y72.609 E.13769
G1 X111.509 Y72.609 E.03405
G1 X111.509 Y69.881 E.13769
G1 X110.835 Y69.881 E.03405
G1 X110.835 Y72.609 E.13769
G1 X110.16 Y72.609 E.03405
G1 X110.16 Y69.881 E.13769
G1 X109.486 Y69.881 E.03405
G1 X109.486 Y72.609 E.13769
G1 X108.811 Y72.609 E.03405
G1 X108.811 Y69.881 E.13769
G1 X108.137 Y69.881 E.03405
G1 X108.137 Y72.609 E.13769
G1 X107.462 Y72.609 E.03405
G1 X107.462 Y69.881 E.13769
G1 X106.788 Y69.881 E.03405
G1 X106.788 Y72.609 E.13769
G1 X106.113 Y72.609 E.03405
G1 X106.113 Y69.881 E.13769
G1 X105.439 Y69.881 E.03405
G1 X105.439 Y72.609 E.13769
G1 X104.764 Y72.609 E.03405
G1 X104.764 Y69.881 E.13769
G1 X104.09 Y69.881 E.03405
G1 X104.09 Y72.609 E.13769
G1 X103.415 Y72.609 E.03405
G1 X103.415 Y69.881 E.13769
G1 X102.74 Y69.881 E.03405
G1 X102.74 Y72.609 E.13769
G1 X102.066 Y72.609 E.03405
G1 X102.066 Y69.881 E.13769
G1 X101.391 Y69.881 E.03405
G1 X101.391 Y72.609 E.13769
G1 X100.717 Y72.609 E.03405
G1 X100.717 Y69.881 E.13769
G1 X100.042 Y69.881 E.03405
G1 X100.042 Y72.882 E.15148
M204 S1000
;WIPE_START
G1 F8640
G1 X100.042 Y69.881 E-.69289
G1 X100.333 Y69.881 E-.06711
;WIPE_END
G1 E-.04 F2100
G1 Z.6 F720
G1 X100.132 Y134.868 F10800
G1 Z.2 F720
G1 E.8 F2100
M204 S800
;TYPE:Perimeter
;WIDTH:0.649999
G1 F1200
G1 X100.132 Y75.132 E3.01539
G1 X149.868 Y75.132 E2.51061
G1 X149.868 Y134.868 E3.01539
G1 X100.222 Y134.868 E2.50606
M204 S1000
M73 Q0 S97
G1 X99.525 Y135.475 F10800
M204 S800
;TYPE:External perimeter
G1 F1200
G1 X99.525 Y74.525 E3.07668
G1 X150.475 Y74.525 E2.5719
G1 X150.475 Y135.475 E3.07668
G1 X99.615 Y135.475 E2.56735
M204 S1000
G1 X99.663 Y134.891 F10800
;WIPE_START
G1 F8640
G1 X99.61 Y132.184 E-.76
;WIPE_END
G1 E-.04 F2100
G1 Z.6 F720
G1 X148.45 Y75.314 F10800
G1 Z.2 F720
G1 E.8 F2100
M204 S800
;TYPE:Solid infill
;WIDTH:0.653863
G1 F1200
G1 X149.413 Y76.276 E.06913
G1 X149.413 Y77.14 E.04389
G1 X147.86 Y75.587 E.11157
G1 X146.996 Y75.587 E.04389
G1 X149.413 Y78.004 E.17364
G1 X149.413 Y78.868 E.04389
G1 X146.132 Y75.587 E.23571
G1 X145.268 Y75.587 E.04389
G1 X149.413 Y79.732 E.29779
G1 X149.413 Y80.596 E.04389
G1 X144.404 Y75.587 E.35986
G1 X143.54 Y75.587 E.04389
G1 X149.413 Y81.46 E.42193
G1 X149.413 Y82.324 E.04389
G1 X142.676 Y75.587 E.484
G1 X141.812 Y75.587 E.04389
G1 X149.413 Y83.188 E.54607
G1 X149.413 Y84.052 E.04389
G1 X140.948 Y75.587 E.60815
G1 X140.084 Y75.587 E.04389
G1 X149.413 Y84.916 E.67022
G1 X149.413 Y85.78 E.04389
M73 P1 R92
G1 X139.22 Y75.587 E.73229
G1 X138.356 Y75.587 E.04389
G1 X149.413 Y86.644 E.79436
G1 X149.413 Y87.508 E.04389
G1 X137.492 Y75.587 E.85643
G1 X136.628 Y75.587 E.04389
M73 Q1 S97
G1 X149.413 Y88.372 E.91851
G1 X149.413 Y89.236 E.04389
G1 X135.764 Y75.587 E.98058
G1 X134.9 Y75.587 E.04389
G1 X149.413 Y90.1 E1.04265
G1 X149.413 Y90.964 E.04389
G1 X134.036 Y75.587 E1.10472
G1 X133.172 Y75.587 E.04389
G1 X149.413 Y91.828 E1.16679
G1 X149.413 Y92.692 E.04389
G1 X132.308 Y75.587 E1.22887
G1 X131.444 Y75.587 E.04389
G1 X149.413 Y93.556 E1.29094
G1 X149.413 Y94.42 E.04389
G1 X130.58 Y75.587 E1.35301
G1 X129.716 Y75.587 E.04389
G1 X149.413 Y95.284 E1.41508
G1 X149.413 Y96.148 E.04389
G1 X128.852 Y75.587 E1.47715
G1 X127.988 Y75.587 E.04389
G1 X149.413 Y97.012 E1.53923
G1 X149.413 Y97.876 E.04389
G1 X127.124 Y75.587 E1.6013
G1 X126.26 Y75.587 E.04389
G1 X149.413 Y98.74 E1.66337
G1 X149.413 Y99.604 E.04389
G1 X125.396 Y75.587 E1.72544
G1 X124.532 Y75.587 E.04389
G1 X149.413 Y100.468 E1.78751
G1 X149.413 Y101.332 E.04389
G1 X123.668 Y75.587 E1.84959
G1 X122.804 Y75.587 E.04389
G1 X149.413 Y102.196 E1.91166
G1 X149.413 Y103.06 E.04389
G1 X121.94 Y75.587 E1.97373
G1 X121.076 Y75.587 E.04389
M73 P1 R91
G1 X149.413 Y103.924 E2.0358
G1 X149.413 Y104.789 E.04389
G1 X120.211 Y75.587 E2.09787
G1 X119.347 Y75.587 E.04389
G1 X149.413 Y105.653 E2.15995
G1 X149.413 Y106.517 E.04389
G1 X118.483 Y75.587 E2.22202
G1 X117.619 Y75.587 E.04389
G1 X149.413 Y107.381 E2.28409
G1 X149.413 Y108.245 E.04389
M73 Q1 S96
G1 X116.755 Y75.587 E2.34616
G1 X115.891 Y75.587 E.04389
G1 X149.413 Y109.109 E2.40823
G1 X149.413 Y109.973 E.04389
G1 X115.027 Y75.587 E2.47031
G1 X114.163 Y75.587 E.04389
G1 X149.413 Y110.837 E2.53238
G1 X149.413 Y111.701 E.04389
G1 X113.299 Y75.587 E2.59445
G1 X112.435 Y75.587 E.04389
G1 X149.413 Y112.565 E2.65652
G1 X149.413 Y113.429 E.04389
G1 X111.571 Y75.587 E2.71859
G1 X110.707 Y75.587 E.04389
M73 P2 R91
G1 X149.413 Y114.293 E2.78067
G1 X149.413 Y115.157 E.04389
G1 X109.843 Y75.587 E2.84274
G1 X108.979 Y75.587 E.04389
M73 Q2 S96
G1 X149.413 Y116.021 E2.90481
G1 X149.413 Y116.885 E.04389
G1 X108.115 Y75.587 E2.96688
G1 X107.251 Y75.587 E.04389
G1 X149.413 Y117.749 E3.02895
G1 X149.413 Y118.613 E.04389
G1 X106.387 Y75.587 E3.09102
G1 X105.523 Y75.587 E.04389
G1 X149.413 Y119.477 E3.1531
G1 X149.413 Y120.341 E.04389
G1 X104.659 Y75.587 E3.21517
G1 X103.795 Y75.587 E.04389
G1 X149.413 Y121.205 E3.27724
G1 X149.413 Y122.069 E.04389
G1 X102.931 Y75.587 E3.33931
G1 X102.067 Y75.587 E.04389
M73 P2 R90
G1 X149.413 Y122.933 E3.40138
G1 X149.413 Y123.797 E.04389
G1 X101.203 Y75.587 E3.46346
G1 X100.587 Y75.587 E.03129
G1 X100.587 Y75.835 E.0126
G1 X149.413 Y124.661 E3.50771
G1 X149.413 Y125.525 E.04389
G1 X100.587 Y76.699 E3.50771
G1 X100.587 Y77.563 E.04389
M73 Q2 S95
G1 X149.413 Y126.389 E3.50771
G1 X149.413 Y127.253 E.04389
G1 X100.587 Y78.427 E3.50771
G1 X100.587 Y79.291 E.04389
G1 X149.413 Y128.117 E3.50771
G1 X149.413 Y128.981 E.04389
M73 P3 R90
G1 X100.587 Y80.155 E3.50771
G1 X100.587 Y81.019 E.04389
G1 X149.413 Y129.845 E3.50771
G1 X149.413 Y130.709 E.04389
G1 X100.587 Y81.883 E3.50771
G1 X100.587 Y82.747 E.04389
M73 Q3 S95
G1 X149.413 Y131.573 E3.50771
G1 X149.413 Y132.437 E.04389
G1 X100.587 Y83.611 E3.50771
G1 X100.587 Y84.475 E.04389
G1 X149.413 Y133.301 E3.50771
G1 X149.413 Y134.165 E.04389
G1 X100.587 Y85.339 E3.50771
G1 X100.587 Y86.203 E.04389
G1 X148.797 Y134.413 E3.46346
G1 X147.933 Y134.413 E.04389
G1 X100.587 Y87.067 E3.40139
G1 X100.587 Y87.931 E.04389
G1 X147.069 Y134.413 E3.33931
G1 X146.205 Y134.413 E.04389
M73 P3 R89
G1 X100.587 Y88.795 E3.27724
G1 X100.587 Y89.659 E.04389
G1 X145.341 Y134.413 E3.21517
G1 X144.477 Y134.413 E.04389
G1 X100.587 Y90.523 E3.1531
G1 X100.587 Y91.387 E.04389
G1 X143.613 Y134.413 E3.09103
G1 X142.749 Y134.413 E.04389
M73 Q3 S94
G1 X100.587 Y92.251 E3.02895
G1 X100.587 Y93.115 E.04389
G1 X141.885 Y134.413 E2.96688
G1 X141.021 Y134.413 E.04389
G1 X100.587 Y93.979 E2.90481
G1 X100.587 Y94.843 E.04389
M73 P4 R89
G1 X140.157 Y134.413 E2.84274
G1 X139.293 Y134.413 E.04389
G1 X100.587 Y95.707 E2.78067
G1 X100.587 Y96.571 E.04389
G1 X138.429 Y134.413 E2.71859
G1 X137.565 Y134.413 E.04389
G1 X100.587 Y97.435 E2.65652
G1 X100.587 Y98.299 E.04389
M73 Q4 S94
G1 X136.701 Y134.413 E2.59445
G1 X135.837 Y134.413 E.04389
G1 X100.587 Y99.163 E2.53238
G1 X100.587 Y100.027 E.04389
G1 X134.973 Y134.413 E2.47031
G1 X134.109 Y134.413 E.04389
G1 X100.587 Y100.891 E2.40823
G1 X100.587 Y101.755 E.04389
G1 X133.245 Y134.413 E2.34616
G1 X132.381 Y134.413 E.04389
G1 X100.587 Y102.619 E2.28409
G1 X100.587 Y103.483 E.04389
G1 X131.517 Y134.413 E2.22202
G1 X130.653 Y134.413 E.04389
G1 X100.587 Y104.347 E2.15995
G1 X100.587 Y105.211 E.04389
G1 X129.789 Y134.413 E2.09788
G1 X128.925 Y134.413 E.04389
G1 X100.587 Y106.075 E2.0358
G1 X100.587 Y106.939 E.04389
G1 X128.061 Y134.413 E1.97373
G1 X127.197 Y134.413 E.04389
G1 X100.587 Y107.803 E1.91166
G1 X100.587 Y108.667 E.04389
M73 P4 R88
G1 X126.333 Y134.413 E1.84959
G1 X125.469 Y134.413 E.04389
G1 X100.587 Y109.531 E1.78752
G1 X100.587 Y110.395 E.04389
G1 X124.605 Y134.413 E1.72544
G1 X123.74 Y134.413 E.04389
G1 X100.587 Y111.26 E1.66337
G1 X100.587 Y112.124 E.04389
G1 X122.876 Y134.413 E1.6013
G1 X122.012 Y134.413 E.04389
G1 X100.587 Y112.988 E1.53923
G1 X100.587 Y113.852 E.04389
G1 X121.148 Y134.413 E1.47716
G1 X120.284 Y134.413 E.04389
M73 Q4 S93
G1 X100.587 Y114.716 E1.41508
G1 X100.587 Y115.58 E.04389
G1 X119.42 Y134.413 E1.35301
G1 X118.556 Y134.413 E.04389
G1 X100.587 Y116.444 E1.29094
G1 X100.587 Y117.308 E.04389
M73 P5 R88
G1 X117.692 Y134.413 E1.22887
G1 X116.828 Y134.413 E.04389
G1 X100.587 Y118.172 E1.1668
G1 X100.587 Y119.036 E.04389
G1 X115.964 Y134.413 E1.10472
G1 X115.1 Y134.413 E.04389
G1 X100.587 Y119.9 E1.04265
G1 X100.587 Y120.764 E.04389
G1 X114.236 Y134.413 E.98058
G1 X113.372 Y134.413 E.04389
G1 X100.587 Y121.628 E.91851
G1 X100.587 Y122.492 E.04389
G1 X112.508 Y134.413 E.85644
G1 X111.644 Y134.413 E.04389
G1 X100.587 Y123.356 E.79436
G1 X100.587 Y124.22 E.04389
G1 X110.78 Y134.413 E.73229
G1 X109.916 Y134.413 E.04389
G1 X100.587 Y125.084 E.67022
G1 X100.587 Y125.948 E.04389
G1 X109.052 Y134.413 E.60815
G1 X108.188 Y134.413 E.04389
G1 X100.587 Y126.812 E.54608
G1 X100.587 Y127.676 E.04389
G1 X107.324 Y134.413 E.484
G1 X106.46 Y134.413 E.04389
G1 X100.587 Y128.54 E.42193
G1 X100.587 Y129.404 E.04389
G1 X105.596 Y134.413 E.35986
G1 X104.732 Y134.413 E.04389
G1 X100.587 Y130.268 E.29779
G1 X100.587 Y131.132 E.04389
G1 X103.868 Y134.413 E.23572
G1 X103.004 Y134.413 E.04389
G1 X100.587 Y131.996 E.17364
G1 X100.587 Y132.86 E.04389
G1 X102.14 Y134.413 E.11157
G1 X101.276 Y134.413 E.04389
G1 X100.314 Y133.45 E.06913
M204 S1000
; stop printing object Part4 zaid.stl id:0 copy 0
M106 S84.15
;LAYER_CHANGE
;Z:0.35
;HEIGHT:0.15
;BEFORE_LAYER_CHANGE
G92 E0.0
;0.35


;WIPE_START
G1 F8640
G1 X101.276 Y134.413 E-.3142
G1 X102.14 Y134.413 E-.1995
G1 X101.386 Y133.658 E-.24629
;WIPE_END
G1 E-.04 F2100
G1 Z.6 F720
;AFTER_LAYER_CHANGE
;0.35
M104 S210 ; set temperature
G1 X101.386 Y138.607 F10800
G1 Z.35 F720
G1 E.8 F2100
;TYPE:Skirt/Brim
;WIDTH:0.65
G1 F3000
G1 X99 Y138.607 E.09193
G1 X97.625 Y138.215 E.05511
G1 X96.663 Y137.156 E.05511
G1 X96.393 Y136 E.04573
G1 X96.393 Y74 E2.38876
G1 X96.809 Y69.109 E.18913
M73 Q5 S93
G1 X97.319 Y67.772 E.05511
G1 X98.457 Y66.906 E.05511
G1 X99.406 Y66.728 E.0372
G1 X120.773 Y66.757 E.82324
G1 X151.393 Y71.423 E1.19334
G1 X152.693 Y72.018 E.05511
G1 X153.484 Y73.209 E.05511
G1 X153.607 Y74 E.03083
G1 X153.607 Y136 E2.38876
G1 X153.215 Y137.375 E.05511
G1 X152.156 Y138.337 E.05511
G1 X151 Y138.607 E.04573
G1 X101.476 Y138.607 E1.90807
; printing object Part4 zaid.stl id:0 copy 0
;WIPE_START
G1 F8640
G1 X99 Y138.607 E-.57175
G1 X98.216 Y138.383 E-.18825
;WIPE_END
G1 E-.04 F2100
G1 Z.75 F720
G1 X99.943 Y135.057 F10800
G1 Z.35 F720
G1 E.8 F2100
M204 S800
;TYPE:Perimeter
;WIDTH:0.649999
G1 F2700
G1 X99.943 Y74.943 E2.3161
G1 X150.057 Y74.943 E1.93082
G1 X150.057 Y135.057 E2.3161
G1 X100.033 Y135.057 E1.92735
M204 S1000
G1 X99.325 Y135.675 F10800
M204 S800
;TYPE:External perimeter
G1 F2100
G1 X99.325 Y74.325 E2.36371
G1 X150.675 Y74.325 E1.97843
G1 X150.675 Y135.675 E2.36371
G1 X99.415 Y135.675 E1.97496
M204 S1000
G1 X99.463 Y135.091 F10800
;WIPE_START
G1 F8640
G1 X99.41 Y132.384 E-.76
;WIPE_END
G1 E-.04 F2100
G1 Z.75 F720
G1 X149.872 Y133.618 F10800
G1 Z.35 F720
G1 E.8 F2100
;TYPE:Solid infill
;WIDTH:0.652243
G1 F4200
G1 X148.896 Y134.594 E.05335
G1 X148.019 Y134.594 E.03391
G1 X149.594 Y133.019 E.0861
G1 X149.594 Y132.142 E.03391
G1 X147.142 Y134.594 E.13405
G1 X146.266 Y134.594 E.03391
G1 X149.594 Y131.266 E.18201
G1 X149.594 Y130.389 E.03391
G1 X145.389 Y134.594 E.22996
G1 X144.512 Y134.594 E.03391
G1 X149.594 Y129.512 E.27791
G1 X149.594 Y128.635 E.03391
G1 X143.635 Y134.594 E.32586
G1 X142.758 Y134.594 E.03391
G1 X149.594 Y127.758 E.37382
G1 X149.594 Y126.881 E.03391
G1 X141.881 Y134.594 E.42177
G1 X141.004 Y134.594 E.03391
G1 X149.594 Y126.004 E.46972
G1 X149.594 Y125.127 E.03391
G1 X140.127 Y134.594 E.51767
G1 X139.25 Y134.594 E.03391
G1 X149.594 Y124.25 E.56563
G1 X149.594 Y123.374 E.03391
G1 X138.374 Y134.594 E.61358
G1 X137.497 Y134.594 E.03391
G1 X149.594 Y122.497 E.66153
G1 X149.594 Y121.62 E.03391
G1 X136.62 Y134.594 E.70949
G1 X135.743 Y134.594 E.03391
G1 X149.594 Y120.743 E.75744
G1 X149.594 Y119.866 E.03391
G1 X134.866 Y134.594 E.80539
G1 X133.989 Y134.594 E.03391
G1 X149.594 Y118.989 E.85334
G1 X149.594 Y118.112 E.03391
G1 X133.112 Y134.594 E.9013
G1 X132.235 Y134.594 E.03391
G1 X149.594 Y117.235 E.94925
G1 X149.594 Y116.359 E.03391
G1 X131.358 Y134.594 E.9972
G1 X130.482 Y134.594 E.03391
G1 X149.594 Y115.482 E1.04515
G1 X149.594 Y114.605 E.03391
G1 X129.605 Y134.594 E1.09311
G1 X128.728 Y134.594 E.03391
G1 X149.594 Y113.728 E1.14106
G1 X149.594 Y112.851 E.03391
G1 X127.851 Y134.594 E1.18901
G1 X126.974 Y134.594 E.03391
G1 X149.594 Y111.974 E1.23696
G1 X149.594 Y111.097 E.03391
G1 X126.097 Y134.594 E1.28492
G1 X125.22 Y134.594 E.03391
G1 X149.594 Y110.22 E1.33287
G1 X149.594 Y109.343 E.03391
G1 X124.343 Y134.594 E1.38082
G1 X123.467 Y134.594 E.03391
G1 X149.594 Y108.467 E1.42878
G1 X149.594 Y107.59 E.03391
G1 X122.59 Y134.594 E1.47673
G1 X121.713 Y134.594 E.03391
G1 X149.594 Y106.713 E1.52468
M73 P5 R87
